lib/brands/icons/c-plusplus.svg

<svg xmlns="http://www.w3.org/2000/svg" fill="none" aria-hidden="true" viewBox="0 0 48 48"><g id="c-plusplus-Icon"><g id="Group"><path id="Vector" fill="#5C8DBC" d="M40.0136 16.584C40.0134 15.9787 39.8839 15.4438 39.6221 14.9847C39.3649 14.5333 38.9798 14.155 38.4632 13.8558C34.199 11.3971 29.9307 8.94582 25.6679 6.48455C24.5187 5.82108 23.4044 5.84527 22.2637 6.51827C20.5664 7.51924 12.0687 12.3877 9.53653 13.8544C8.4937 14.4581 7.98625 15.382 7.986 16.5829C7.98438 21.5276 7.986 26.4722 7.98438 31.417C7.98463 32.009 8.10857 32.5335 8.35885 32.9857C8.61614 33.4508 9.00665 33.8395 9.53515 34.1455C12.0675 35.6121 20.5663 40.4803 22.2632 41.4815C23.4044 42.1549 24.5187 42.1789 25.6683 41.5152C29.9312 39.0538 34.1998 36.6027 38.4646 34.144C38.9931 33.8382 39.3836 33.4492 39.6409 32.9844C39.8908 32.5323 40.015 32.0078 40.0152 31.4156C40.0152 31.4156 40.0152 21.5288 40.0136 16.584Z"/><path id="Vector_2" fill="#1A4674" d="M24.0489 23.9518L8.35889 32.9857C8.61618 33.4508 9.00669 33.8395 9.53519 34.1455C12.0675 35.6121 20.5663 40.4803 22.2632 41.4815C23.4044 42.1549 24.5187 42.1789 25.6683 41.5152C29.9312 39.0538 34.1998 36.6027 38.4646 34.144C38.9931 33.8382 39.3836 33.4491 39.6409 32.9844L24.0489 23.9518Z"/><path id="Vector_3" fill="#1A4674" d="M19.4019 26.6277C20.3148 28.2216 22.0312 29.2966 24 29.2966C25.9811 29.2966 27.7072 28.2079 28.6155 26.597L24.049 23.9518L19.4019 26.6277Z"/><path id="Vector_4" fill="#1B598E" d="M40.0136 16.584C40.0134 15.9787 39.8839 15.4438 39.6221 14.9847L24.0488 23.9518L39.6409 32.9845C39.8908 32.5323 40.015 32.0078 40.0153 31.4156C40.0153 31.4156 40.0153 21.5288 40.0136 16.584Z"/><path id="Vector_5" fill="white" d="M39.1563 24.5974H37.9379V25.8161H36.7193V24.5974H35.501V23.3791H36.7193V22.1607H37.9379V23.3791H39.1563V24.5974Z"/><path id="Vector_6" fill="white" d="M34.7103 24.5974H33.492V25.8161H32.2736V24.5974H31.0552V23.3791H32.2736V22.1607H33.492V23.3791H34.7103V24.5974Z"/><path id="Vector_7" fill="white" d="M28.6152 26.597C27.7069 28.2079 25.9808 29.2966 23.9998 29.2966C22.0309 29.2966 20.3146 28.2216 19.4016 26.6277C18.9581 25.8532 18.703 24.9565 18.703 23.9999C18.703 21.0747 21.0746 18.7033 23.9998 18.7033C25.956 18.7033 27.6633 19.7649 28.5808 21.3425L33.2104 18.6766C31.3703 15.5001 27.9347 13.363 23.9998 13.363C18.125 13.363 13.3628 18.1254 13.3628 23.9999C13.3628 25.9271 13.8755 27.7345 14.7716 29.2934C16.6071 32.4867 20.0524 34.6369 23.9998 34.6369C27.9544 34.6369 31.4051 32.478 33.238 29.2753L28.6152 26.597Z"/></g></g></svg>

<svg xmlns="http://www.w3.org/2000/svg" fill="none" aria-hidden="true" viewBox="0 0 48 48"><path fill="#5C8DBC" d="M40.014 16.584c0-.605-.13-1.14-.392-1.6-.257-.45-.642-.829-1.159-1.128-4.264-2.459-8.532-4.91-12.795-7.371-1.15-.664-2.264-.64-3.404.033-1.698 1.001-10.195 5.87-12.727 7.336-1.043.604-1.55 1.528-1.551 2.729-.002 4.945 0 9.89-.002 14.834 0 .592.125 1.116.375 1.569.257.465.648.854 1.176 1.16 2.533 1.466 11.031 6.334 12.728 7.335 1.141.674 2.256.698 3.405.034 4.263-2.461 8.532-4.912 12.797-7.371.528-.306.919-.695 1.176-1.16.25-.452.374-.976.374-1.568l-.001-14.832Z"/><path fill="#1A4674" d="m24.049 23.952-15.69 9.034c.257.465.648.854 1.176 1.16 2.533 1.466 11.031 6.334 12.728 7.335 1.141.674 2.256.698 3.405.034 4.263-2.461 8.532-4.912 12.797-7.371.528-.306.919-.695 1.176-1.16l-15.592-9.032Z"/><path fill="#1A4674" d="M19.402 26.628a5.293 5.293 0 0 0 9.213-.031l-4.566-2.645-4.647 2.676Z"/><path fill="#1B598E" d="M40.014 16.584c0-.605-.13-1.14-.392-1.6L24.05 23.953l15.592 9.032c.25-.452.374-.976.374-1.568l-.001-14.832Z"/><path fill="#fff" d="M39.156 24.597h-1.218v1.22h-1.219v-1.22h-1.218V23.38h1.218v-1.218h1.219v1.218h1.218v1.218Zm-4.446 0h-1.218v1.22h-1.218v-1.22h-1.219V23.38h1.219v-1.218h1.218v1.218h1.218v1.218Z"/><path fill="#fff" d="M28.615 26.597a5.294 5.294 0 0 1-9.213.03 5.297 5.297 0 0 1 9.18-5.285l4.628-2.665A10.633 10.633 0 0 0 24 13.363c-5.875 0-10.637 4.762-10.637 10.637A10.632 10.632 0 0 0 24 34.637c3.954 0 7.405-2.159 9.238-5.362l-4.623-2.678Z"/></svg>
